manual-assets/professional/deepin-reader/en_US/icon/QM.svg

<?xml version="1.0" encoding="iso-8859-1"?>
<!-- Generator: Adobe Illustrator 18.0.0, SVG Export Plug-In . SVG Version: 6.00 Build 0)  -->
<!DOCTYPE svg PUBLIC "-//W3C//DTD SVG 1.1//EN" "http://www.w3.org/Graphics/SVG/1.1/DTD/svg11.dtd">
<svg version="1.1" id="&#x56FE;&#x5C42;_1" xmlns="http://www.w3.org/2000/svg" xmlns:xlink="http://www.w3.org/1999/xlink" x="0px"
	 y="0px" viewBox="0 0 20 20" enable-background="new 0 0 20 20" xml:space="preserve">
<g>
	<path opacity="0.1" fill="#FFFFFF" d="M15.7,19.5H4.3c-2.09,0-3.8-1.71-3.8-3.8V4.3c0-2.09,1.71-3.8,3.8-3.8h11.4
		c2.09,0,3.8,1.71,3.8,3.8v11.4C19.5,17.79,17.79,19.5,15.7,19.5z"/>
	<path fill="none" stroke="#CBCBCB" stroke-miterlimit="10" d="M15.5,19.5h-11c-2.209,0-4-1.791-4-4v-11c0-2.209,1.791-4,4-4h11
		c2.209,0,4,1.791,4,4v11C19.5,17.709,17.709,19.5,15.5,19.5z"/>
	<path d="M9.371,12.406c0-0.182,0-0.31,0-0.383c0-0.474,0.072-0.893,0.219-1.258c0.072-0.255,0.236-0.51,0.492-0.766
		c0.146-0.219,0.428-0.51,0.848-0.875c0.419-0.364,0.692-0.665,0.82-0.902c0.127-0.236,0.191-0.482,0.191-0.738
		c0-0.474-0.183-0.893-0.547-1.258c-0.365-0.364-0.82-0.547-1.367-0.547c-0.511,0-0.948,0.164-1.313,0.492
		C8.35,6.5,8.113,7.011,8.004,7.703L6.746,7.539c0.109-0.911,0.446-1.613,1.012-2.105c0.564-0.492,1.321-0.738,2.27-0.738
		c0.984,0,1.768,0.265,2.352,0.793c0.583,0.529,0.875,1.176,0.875,1.941c0,0.438-0.109,0.839-0.328,1.203
		c-0.219,0.365-0.62,0.803-1.203,1.313c-0.401,0.365-0.666,0.629-0.793,0.793c-0.128,0.164-0.219,0.355-0.273,0.574
		s-0.082,0.584-0.082,1.094H9.371z M9.001,14.336v-0.077c0-0.535,0.434-0.968,0.968-0.968h0c0.535,0,0.968,0.434,0.968,0.968v0.077
		c0,0.535-0.434,0.968-0.968,0.968h0C9.435,15.305,9.001,14.871,9.001,14.336z"/>
</g>
</svg>

<?xml version="1.0" encoding="UTF-8"?>
<svg width="20px" height="20px" viewBox="0 0 20 20" version="1.1" xmlns="http://www.w3.org/2000/svg" xmlns:xlink="http://www.w3.org/1999/xlink">
    <!-- Generator: Sketch 64 (93537) - https://sketch.com -->
    <title>QM</title>
    <desc>Created with Sketch.</desc>
    <g id="页面-1" stroke="none" stroke-width="1" fill="none" fill-rule="evenodd">
        <g id="QM">
            <path d="M15.7,19.5 L4.3,19.5 C2.21,19.5 0.5,17.79 0.5,15.7 L0.5,4.3 C0.5,2.21 2.21,0.5 4.3,0.5 L15.7,0.5 C17.79,0.5 19.5,2.21 19.5,4.3 L19.5,15.7 C19.5,17.79 17.79,19.5 15.7,19.5 Z" id="路径" fill="#FFFFFF" fill-rule="nonzero"></path>
            <path d="M15.5,19.5 L4.5,19.5 C2.291,19.5 0.5,17.709 0.5,15.5 L0.5,4.5 C0.5,2.291 2.291,0.5 4.5,0.5 L15.5,0.5 C17.709,0.5 19.5,2.291 19.5,4.5 L19.5,15.5 C19.5,17.709 17.709,19.5 15.5,19.5 Z" id="路径" stroke="#CBCBCB"></path>
            <path d="M9.371,12.406 C9.371,12.224 9.371,12.096 9.371,12.023 C9.371,11.549 9.443,11.13 9.59,10.765 C9.662,10.51 9.826,10.255 10.082,9.999 C10.228,9.78 10.51,9.489 10.93,9.124 C11.349,8.76 11.622,8.459 11.75,8.222 C11.877,7.986 11.941,7.74 11.941,7.484 C11.941,7.01 11.758,6.591 11.394,6.226 C11.029,5.862 10.574,5.679 10.027,5.679 C9.516,5.679 9.079,5.843 8.714,6.171 C8.35,6.5 8.113,7.011 8.004,7.703 L6.746,7.539 C6.855,6.628 7.192,5.926 7.758,5.434 C8.322,4.942 9.079,4.696 10.028,4.696 C11.012,4.696 11.796,4.961 12.38,5.489 C12.963,6.018 13.255,6.665 13.255,7.43 C13.255,7.868 13.146,8.269 12.927,8.633 C12.708,8.998 12.307,9.436 11.724,9.946 C11.323,10.311 11.058,10.575 10.931,10.739 C10.803,10.903 10.712,11.094 10.658,11.313 C10.604,11.532 10.576,11.897 10.576,12.407 L9.371,12.407 L9.371,12.406 Z M9.001,14.336 L9.001,14.259 C9.001,13.724 9.435,13.291 9.969,13.291 L9.969,13.291 C10.504,13.291 10.937,13.725 10.937,14.259 L10.937,14.336 C10.937,14.871 10.503,15.3040017 9.969,15.3040017 L9.969,15.3040017 C9.435,15.305 9.001,14.871 9.001,14.336 Z" id="形状" fill="#000000" fill-rule="nonzero"></path>
        </g>
    </g>
</svg>
